svg/Pictogram/pictograms-nps-misc-bottles.svg

<svg xmlns="http://www.w3.org/2000/svg" viewBox="0 0 256 256"><path d="m0 0c-.541 0-.982-.44-.982-.981v-7.528c0-.541.441-.981.982-.981h7.527c.541 0 .981.44.981.981v7.528c0 .541-.44.981-.981.981h-7.527" fill="#fff" transform="matrix(25.88473 0 0-25.88473 30.599 5.172)"/><path d="m0 0c0-.146-.125-.266-.279-.266h-2.049c-.156 0-.279.12-.279.266v3.881c0 .157.025.315.078.458l.853 2.189c-.068.001-.121.066-.121.133 0 .049.029.092.072.116-.043.023-.072.067-.072.117 0 .074.063.132.141.132h.703c.078 0 .14-.058.14-.132 0-.052-.029-.095-.074-.117.043-.023.074-.065.074-.116 0-.067-.05-.123-.119-.132l.852-2.19c.053-.143.08-.301.08-.458v-3.881m-3.893-.07c0-.119-.103-.216-.226-.216h-2.223c-.123 0-.224.097-.224.216v3.877c0 .506.367.931.865 1.045v1.735h.943v-1.735c.494-.116.865-.54.865-1.045v-3.877m-1.808 7.423h.943v-.374h-.943v.374m6.183 1.09h-7.527c-.652 0-1.182-.529-1.182-1.181v-7.528c0-.652.53-1.181 1.182-1.181h7.527c.653 0 1.182.529 1.182 1.181v7.528c0 .652-.529 1.181-1.182 1.181" transform="matrix(25.88473 0 0-25.88473 212.95 218.54)"/></svg>

<?xml version="1.0" encoding="UTF-8" standalone="no"?>
<!-- Created with Inkscape (http://www.inkscape.org/) -->
<svg
   xmlns:dc="http://purl.org/dc/elements/1.1/"
   xmlns:cc="http://creativecommons.org/ns#"
   xmlns:rdf="http://www.w3.org/1999/02/22-rdf-syntax-ns#"
   xmlns:svg="http://www.w3.org/2000/svg"
   xmlns="http://www.w3.org/2000/svg"
   xmlns:sodipodi="http://sodipodi.sourceforge.net/DTD/sodipodi-0.dtd"
   xmlns:inkscape="http://www.inkscape.org/namespaces/inkscape"
   width="256"
   height="256"
   id="svg8302"
   sodipodi:version="0.32"
   inkscape:version="0.46"
   version="1.0"
   sodipodi:docname="pictograms-nps-misc-bottles-2.svg"
   inkscape:output_extension="org.inkscape.output.svg.inkscape">
  <defs
     id="defs8304">
    <inkscape:perspective
       sodipodi:type="inkscape:persp3d"
       inkscape:vp_x="0 : 526.18109 : 1"
       inkscape:vp_y="0 : 1000 : 0"
       inkscape:vp_z="744.09448 : 526.18109 : 1"
       inkscape:persp3d-origin="372.04724 : 350.78739 : 1"
       id="perspective8310" />
  </defs>
  <sodipodi:namedview
     id="base"
     pagecolor="#ffffff"
     bordercolor="#666666"
     borderopacity="1.0"
     gridtolerance="10000"
     guidetolerance="10"
     objecttolerance="10"
     inkscape:pageopacity="0.0"
     inkscape:pageshadow="2"
     inkscape:zoom="0.7"
     inkscape:cx="61.634556"
     inkscape:cy="136.73676"
     inkscape:document-units="px"
     inkscape:current-layer="layer1"
     showgrid="false"
     inkscape:window-width="738"
     inkscape:window-height="674"
     inkscape:window-x="0"
     inkscape:window-y="198" />
  <metadata
     id="metadata8307">
    <rdf:RDF>
      <cc:Work
         rdf:about="">
        <dc:format>image/svg+xml</dc:format>
        <dc:type
           rdf:resource="http://purl.org/dc/dcmitype/StillImage" />
      </cc:Work>
    </rdf:RDF>
  </metadata>
  <g
     inkscape:label="Layer 1"
     inkscape:groupmode="layer"
     id="layer1">
    <g
       id="g3152"
       transform="matrix(25.884732,0,0,-25.884732,30.598549,5.1715624)">
      <path
         d="M 0,0 C -0.541,0 -0.982,-0.44 -0.982,-0.981 L -0.982,-8.509 C -0.982,-9.05 -0.541,-9.49 0,-9.49 L 7.527,-9.49 C 8.068,-9.49 8.508,-9.05 8.508,-8.509 L 8.508,-0.981 C 8.508,-0.44 8.068,0 7.527,0 L 0,0 z"
         style="fill:#ffffff;fill-opacity:1;fill-rule:nonzero;stroke:none"
         id="path3154" />
    </g>
    <g
       id="g3156"
       transform="matrix(25.884732,0,0,-25.884732,212.95369,218.54479)">
      <path
         d="M 0,0 C 0,-0.146 -0.125,-0.266 -0.279,-0.266 L -2.328,-0.266 C -2.484,-0.266 -2.607,-0.146 -2.607,0 L -2.607,3.881 C -2.607,4.038 -2.582,4.196 -2.529,4.339 L -1.676,6.528 C -1.744,6.538 -1.797,6.594 -1.797,6.661 C -1.797,6.71 -1.768,6.753 -1.725,6.777 C -1.768,6.8 -1.797,6.844 -1.797,6.894 C -1.797,6.968 -1.734,7.026 -1.656,7.026 L -0.953,7.026 C -0.875,7.026 -0.813,6.968 -0.813,6.894 C -0.813,6.842 -0.842,6.799 -0.887,6.777 C -0.844,6.754 -0.813,6.712 -0.813,6.661 C -0.813,6.594 -0.863,6.538 -0.932,6.529 L -0.08,4.339 C -0.027,4.196 0,4.038 0,3.881 L 0,0 z M -3.893,-0.07 C -3.893,-0.189 -3.996,-0.286 -4.119,-0.286 L -6.342,-0.286 C -6.465,-0.286 -6.566,-0.189 -6.566,-0.07 L -6.566,3.807 C -6.566,4.313 -6.199,4.738 -5.701,4.852 L -5.701,6.587 L -4.758,6.587 L -4.758,4.852 C -4.264,4.736 -3.893,4.312 -3.893,3.807 L -3.893,-0.07 z M -5.701,7.353 L -4.758,7.353 L -4.758,6.979 L -5.701,6.979 L -5.701,7.353 z M 0.482,8.443 L -7.045,8.443 C -7.697,8.443 -8.227,7.914 -8.227,7.262 L -8.227,-0.266 C -8.227,-0.918 -7.697,-1.447 -7.045,-1.447 L 0.482,-1.447 C 1.135,-1.447 1.664,-0.918 1.664,-0.266 L 1.664,7.262 C 1.664,7.914 1.135,8.443 0.482,8.443"
         style="fill:#000000;fill-opacity:1;fill-rule:nonzero;stroke:none"
         id="path3158" />
    </g>
  </g>
</svg>
